X: 51
T: Ding Dong Bell
R: reel
M: 2/4
L: 1/16
Z: 2012 John Chambers <jc:trillian.mit.edu>
B: Saml. Ann & Peter Thompson "Twenty Four Country Dances for the Year 1791", London 1791, p.26 #1
K: G
% - - - - - - - - - - - - - - - - - - - - - - - - -
|:\
GABc d2B2 | ABcd e2c2 | GABc d2B2 | c2A2 A4 |\
GABc d2B2 | ABcd e2c2 | B2g2 d2c2 | B2G2 G4 :|
|:\
g2b2 g2d2 | e2g2 d2B2 | c2e2 d2B2 | c2A2 A4 |\
g2b2 g2d2 | e2g2 d2B2 | A2e2 d2c2 | B2G2 G4 :|
% - - - - - - - - Dance description - - - - - - - -
%%begintext align
%% 1st & 2d Cu: change sides & back again .|.
%% hands 4 across & back again :|.
%% lead down the middle up again and cast off .|:
%% then Allemande :|:
%%endtext

%%sep 1 1 500
%%sep 1 1 500
